X: 1
T: Cailleach A' Ghobhainn
O: Gaelic song/tune, taught by Alastair WHite, BHSFS 2015
N: arr. Terry Traub 2015-8-16
R: jig
Z: 2015 John Chambers <jc:trillian.mit.edu>
M: 6/8
L: 1/8
K: A
[|\
"A"ecc cBA | BcB BAA | ecc cBA | Bce "D"f2a |\
"A"ecc cBA | BcB BAA | ecc cBA | Bce "D"f2a |]
[|\
"A"e3 a3 | ccc cBA | e3 a2A | "Bm"Bce "D"f3 |\
"A"e3 a3 | ccc cBA | ecc cBA | "Bm"Bce "D"f2a |]
